austria/municipalities/70925.svg

<?xml version="1.0" encoding="UTF-8"?>
<!DOCTYPE svg PUBLIC "-//W3C//DTD SVG 1.1//EN" "http://www.w3.org/Graphics/SVG/1.1/DTD/svg11.dtd">
<svg xmlns="http://www.w3.org/2000/svg" version="1.1" width="166px" height="192px" style="shape-rendering:geometricPrecision; text-rendering:geometricPrecision; image-rendering:optimizeQuality; fill-rule:evenodd; clip-rule:evenodd" xmlns:xlink="http://www.w3.org/1999/xlink">
<g><path style="opacity:1" fill="#110806" d="M -0.5,-0.5 C 54.8333,-0.5 110.167,-0.5 165.5,-0.5C 165.5,39.1667 165.5,78.8333 165.5,118.5C 157.367,159.633 132.7,183.966 91.5,191.5C 84.8333,191.5 78.1667,191.5 71.5,191.5C 30.4766,182.81 6.47657,157.81 -0.5,116.5C -0.5,77.5 -0.5,38.5 -0.5,-0.5 Z"/></g>
<g><path style="opacity:1" fill="#d73023" d="M 3.5,3.5 C 56.1667,3.5 108.833,3.5 161.5,3.5C 161.667,41.8348 161.5,80.1681 161,118.5C 154.29,156.876 131.79,179.71 93.5,187C 55.1795,190.094 27.3461,174.594 10,140.5C 7.2432,133.388 5.2432,126.054 4,118.5C 3.50001,80.1681 3.33335,41.8348 3.5,3.5 Z"/></g>
<g><path style="opacity:1" fill="#fdfdfd" d="M 86.5,60.5 C 105.833,60.5 125.167,60.5 144.5,60.5C 144.5,73.5 144.5,86.5 144.5,99.5C 110.833,99.5 77.1667,99.5 43.5,99.5C 29.0968,96.9252 20.9301,88.2586 19,73.5C 18.006,68.882 17.506,64.2153 17.5,59.5C 21.1667,59.5 24.8333,59.5 28.5,59.5C 28.0911,69.1112 31.7578,76.6112 39.5,82C 46.1391,84.3365 52.4724,83.6698 58.5,80C 63.0613,74.527 68.0613,69.527 73.5,65C 77.4738,62.3979 81.8071,60.8979 86.5,60.5 Z"/></g>
<g><path style="opacity:1" fill="#605d5a" d="M 86.5,60.5 C 86.5,60.1667 86.5,59.8333 86.5,59.5C 106.167,59.5 125.833,59.5 145.5,59.5C 145.829,73.0105 145.496,86.3438 144.5,99.5C 144.5,86.5 144.5,73.5 144.5,60.5C 125.167,60.5 105.833,60.5 86.5,60.5 Z"/></g>
<g><path style="opacity:1" fill="#1b1413" d="M 84.5,58.5 C 84.8417,59.3382 85.5084,59.6716 86.5,59.5C 86.5,59.8333 86.5,60.1667 86.5,60.5C 81.8071,60.8979 77.4738,62.3979 73.5,65C 68.0613,69.527 63.0613,74.527 58.5,80C 52.4724,83.6698 46.1391,84.3365 39.5,82C 31.7578,76.6112 28.0911,69.1112 28.5,59.5C 24.8333,59.5 21.1667,59.5 17.5,59.5C 17.506,64.2153 18.006,68.882 19,73.5C 20.9301,88.2586 29.0968,96.9252 43.5,99.5C 42.8333,99.5 42.5,99.8333 42.5,100.5C 27.7459,97.5755 19.2459,88.5755 17,73.5C 16.5007,68.5111 16.3341,63.5111 16.5,58.5C 21.1667,58.5 25.8333,58.5 30.5,58.5C 30.5404,64.87 32.0404,70.87 35,76.5C 41.0361,81.7225 47.8694,82.8891 55.5,80C 60.4829,75.0855 65.4829,70.0855 70.5,65C 74.7975,62.0176 79.4642,59.851 84.5,58.5 Z"/></g>
<g><path style="opacity:1" fill="#010000" d="M 84.5,58.5 C 105.167,58.5 125.833,58.5 146.5,58.5C 146.5,72.5 146.5,86.5 146.5,100.5C 111.833,100.5 77.1667,100.5 42.5,100.5C 42.5,99.8333 42.8333,99.5 43.5,99.5C 77.1667,99.5 110.833,99.5 144.5,99.5C 145.496,86.3438 145.829,73.0105 145.5,59.5C 125.833,59.5 106.167,59.5 86.5,59.5C 85.5084,59.6716 84.8417,59.3382 84.5,58.5 Z"/></g>
<g><path style="opacity:1" fill="#fdfdfd" d="M -0.5,116.5 C 6.47657,157.81 30.4766,182.81 71.5,191.5C 47.5,191.5 23.5,191.5 -0.5,191.5C -0.5,166.5 -0.5,141.5 -0.5,116.5 Z"/></g>
<g><path style="opacity:1" fill="#fdfcfc" d="M 165.5,118.5 C 165.5,142.833 165.5,167.167 165.5,191.5C 140.833,191.5 116.167,191.5 91.5,191.5C 132.7,183.966 157.367,159.633 165.5,118.5 Z"/></g>
</svg>

<svg xmlns="http://www.w3.org/2000/svg" width="166" height="192" style="shape-rendering:geometricPrecision;text-rendering:geometricPrecision;image-rendering:optimizeQuality;fill-rule:evenodd;clip-rule:evenodd"><path style="opacity:1" fill="#110806" d="M-.5-.5h166v119c-8.133 41.133-32.8 65.466-74 73h-20c-41.023-8.69-65.023-33.69-72-75V-.5z"/><path style="opacity:1" fill="#d73023" d="M3.5 3.5h158c.167 38.335 0 76.668-.5 115-6.71 38.376-29.21 61.21-67.5 68.5-38.32 3.094-66.154-12.406-83.5-46.5a110.24 110.24 0 0 1-6-22c-.5-38.332-.667-76.665-.5-115z"/><path style="opacity:1" fill="#fdfdfd" d="M86.5 60.5h58v39h-101c-14.403-2.575-22.57-11.241-24.5-26a66.753 66.753 0 0 1-1.5-14h11c-.409 9.611 3.258 17.111 11 22.5 6.64 2.337 12.972 1.67 19-2a116.58 116.58 0 0 1 15-15c3.974-2.602 8.307-4.102 13-4.5z"/><path style="opacity:1" fill="#605d5a" d="M86.5 60.5v-1h59a400.453 400.453 0 0 1-1 40v-39h-58z"/><path style="opacity:1" fill="#1b1413" d="M84.5 58.5c.342.838 1.008 1.172 2 1v1c-4.693.398-9.026 1.898-13 4.5a116.58 116.58 0 0 0-15 15c-6.028 3.67-12.36 4.337-19 2-7.742-5.389-11.409-12.889-11-22.5h-11a66.753 66.753 0 0 0 1.5 14c1.93 14.759 10.097 23.425 24.5 26-.667 0-1 .333-1 1-14.754-2.924-23.254-11.924-25.5-27-.5-4.989-.666-9.989-.5-15h14c.04 6.37 1.54 12.37 4.5 18 6.036 5.222 12.87 6.39 20.5 3.5a1550.65 1550.65 0 0 0 15-15 44.688 44.688 0 0 1 14-6.5z"/><path style="opacity:1" fill="#010000" d="M84.5 58.5h62v42h-104c0-.667.333-1 1-1h101a400.453 400.453 0 0 0 1-40h-59c-.992.172-1.658-.162-2-1z"/><path style="opacity:1" fill="#fdfdfd" d="M-.5 116.5c6.977 41.31 30.977 66.31 72 75h-72v-75z"/><path style="opacity:1" fill="#fdfcfc" d="M165.5 118.5v73h-74c41.2-7.534 65.867-31.867 74-73z"/></svg>
